svgs/sharp-light/earth-americas.svg

<svg xmlns="http://www.w3.org/2000/svg" viewBox="0 0 512 512"><!--! Font Awesome Pro 6.6.0 by @fontawesome - https://fontawesome.com License - https://fontawesome.com/license (Commercial License) Copyright 2024 Fonticons, Inc. --><path d="M477.7 288C462.2 396.6 368.8 480 256 480C132.3 480 32 379.7 32 256c0-10.3 .7-20.5 2.1-30.5l36.3 27.3 4.3 3.2 5.3 0 41.4 0L160 294.6l0 57.4 0 6.6 4.7 4.7L192 390.6l0 41.4 0 16 16 0 64 0 16 0 0-16 0-25.4 59.3-59.3 4.7-4.7 0-6.6 0-80 0-16-16 0-121.4 0L192 217.4l0-9.4 64 0 16 0 0-16 0-32 0-6.6-4.7-4.7L240 121.4l0-2.7 27.3-27.3 4.7-4.7 0-6.6 0-47.4c69.9 4.9 130.9 41.9 168.5 96.3l-51.8 51.8-4.7 4.7 0 6.6 0 80 0 16 16 0 77.7 0zM457.2 157.4C471.8 187.2 480 220.6 480 256l-64 0 0-57.4 41.2-41.2zM41.5 191.1C67.9 104 145.9 39.2 240 32.6l0 40.8-27.3 27.3-4.7 4.7 0 6.6 0 16 0 6.6 4.7 4.7L240 166.6l0 9.4-64 0-16 0 0 16 0 32 0 6.6 4.7 4.7 32 32 4.7 4.7 6.6 0 112 0 0 57.4-59.3 59.3-4.7 4.7 0 6.6 0 16-32 0 0-32 0-6.6-4.7-4.7L192 345.4l0-57.4 0-6.6-4.7-4.7-48-48-4.7-4.7-6.6 0-42.7 0L41.5 191.1zM256 512A256 256 0 1 0 256 0a256 256 0 1 0 0 512z"/></svg>

<svg xmlns="http://www.w3.org/2000/svg" viewBox="0 0 512 512"><!--! Font Awesome Pro 6.4.0 by @fontawesome - https://fontawesome.com License - https://fontawesome.com/license (Commercial License) Copyright 2023 Fonticons, Inc. --><path d="M477.7 288C462.2 396.6 368.8 480 256 480C132.3 480 32 379.7 32 256c0-10.3 .7-20.5 2.1-30.5l36.3 27.3 4.3 3.2H80h41.4L160 294.6V352v6.6l4.7 4.7L192 390.6V432v16h16 64 16V432 406.6l59.3-59.3 4.7-4.7V336 256 240H336 214.6L192 217.4V208h64 16V192 160v-6.6l-4.7-4.7L240 121.4v-2.7l27.3-27.3 4.7-4.7V80 32.6c69.9 4.9 130.9 41.9 168.5 96.3l-51.8 51.8-4.7 4.7V192v80 16h16 77.7zM457.2 157.4C471.8 187.2 480 220.6 480 256H416V198.6l41.2-41.2zM41.5 191.1C67.9 104 145.9 39.2 240 32.6V73.4l-27.3 27.3-4.7 4.7V112v16 6.6l4.7 4.7L240 166.6V176H176 160v16 32 6.6l4.7 4.7 32 32 4.7 4.7H208 320v57.4l-59.3 59.3-4.7 4.7V400v16H224V384v-6.6l-4.7-4.7L192 345.4V288v-6.6l-4.7-4.7-48-48-4.7-4.7H128 85.3L41.5 191.1zM256 512A256 256 0 1 0 256 0a256 256 0 1 0 0 512z"/></svg>
